src/svg/ue927-magic2.svg

<!-- Generated by IcoMoon.io -->
<svg version="1.1" xmlns="http://www.w3.org/2000/svg" width="32" height="32" viewBox="0 0 32 32">
<path d="M8 5.995l-4-4h-2.002v2l4 3.998 2.002-1.998zM10-0.002h2v3.998h-2v-3.998zM18 9.998h3.998v2h-3.998v-2zM19.998 3.995v-2h-1.998l-4 4 2 2 3.998-4zM0 9.998h3.998v2h-3.998v-2zM10 17.998h2v3.998h-2v-3.998zM1.998 17.998v1.998h2l4-3.998-2-2-4 4zM31.561 27.561l-19.877-19.881c-0.585-0.585-1.541-0.585-2.123 0l-1.881 1.881c-0.585 0.585-0.585 1.541 0 2.123l19.881 19.879c0.585 0.585 1.541 0.585 2.121 0l1.881-1.881c0.583-0.583 0.583-1.538-0.002-2.121zM15.001 16.997l-6-6 2-1.998 6 6-2 1.998z"></path>
</svg>

<svg xmlns="http://www.w3.org/2000/svg" width="32" height="32"><path d="M8 5.995l-4-4H1.998v2l4 3.998L8 5.995zm2-5.997h2v3.998h-2V-.002zm8 10h3.998v2H18v-2zm1.998-6.003v-2H18l-4 4 2 2 3.998-4zM0 9.998h3.998v2H0v-2zm10 8h2v3.998h-2v-3.998zm-8.002 0v1.998h2l4-3.998-2-2-4 4zm29.563 9.563L11.684 7.68a1.503 1.503 0 0 0-2.123 0L7.68 9.561a1.503 1.503 0 0 0 0 2.123l19.881 19.879a1.501 1.501 0 0 0 2.121 0l1.881-1.881a1.503 1.503 0 0 0-.002-2.121zm-16.56-10.564l-6-6 2-1.998 6 6-2 1.998z"/></svg>
